X: 36983
T: Sí Beag Sí Mór
R: waltz
M: 3/4
K: Dmajor
fg|:a3 g f2|f3 gf2|d3 e dc|A4 c2|
dcde f2|g4 fg|a bag|f3 g a2|
d4 g2|c4 f2|A3 BAG|F4 a2|
d4 g2|c4 fe|f4 e2|f4 fg:|
|:a2 ag f2|gfga c'2|d'4 (3c'd'c'|a4 gf|
g4 c'2|a4 g2|g4 d2|d4 c2|
A3 B AG|F4 a2|d4 g2|c4 c'2|
d'c'bagf|g4 fe|f6|f4:|

